resources/images/icons/chevron-left.svg

<svg fill="none" height="24" viewBox="0 0 24 24" width="24" xmlns="http://www.w3.org/2000/svg"><path d="m14.7071 5.29289c.3905.39053.3905 1.02369 0 1.41422l-5.29289 5.29289 5.29289 5.2929c.3905.3905.3905 1.0237 0 1.4142s-1.0237.3905-1.4142 0l-6.00001-6c-.39052-.3905-.39052-1.0237 0-1.4142l6.00001-6.00001c.3905-.39052 1.0237-.39052 1.4142 0z" fill="#0d0d0d" xmlns="http://www.w3.org/2000/svg"/></svg>

<svg fill="none" viewBox="0 0 24 24" height="24" width="24" xmlns="http://www.w3.org/2000/svg">
<path xmlns="http://www.w3.org/2000/svg" d="M14.7071 5.29289C15.0976 5.68342 15.0976 6.31658 14.7071 6.70711L9.41421 12L14.7071 17.2929C15.0976 17.6834 15.0976 18.3166 14.7071 18.7071C14.3166 19.0976 13.6834 19.0976 13.2929 18.7071L7.29289 12.7071C6.90237 12.3166 6.90237 11.6834 7.29289 11.2929L13.2929 5.29289C13.6834 4.90237 14.3166 4.90237 14.7071 5.29289Z" fill="#0D0D0D"></path>
</svg>
